icons-rebrand/svg/clean-up-bold.svg

<svg width="32" height="32" viewBox="0 0 32 32" fill="none" xmlns="http://www.w3.org/2000/svg">
<path d="M26.7787 3.89006C25.4215 2.93973 23.5509 3.26957 22.6006 4.62679L18.3029 10.7645C17.3501 10.7096 16.4592 10.9182 15.6574 11.2731C14.1975 11.9193 13.0393 13.0461 12.2926 13.7929C10.8402 15.2453 8.99661 16.595 7.25732 17.0299C7.19452 17.0456 7.09019 17.0696 6.96988 17.0973C6.7688 17.1436 6.52286 17.2002 6.35177 17.2454C6.02295 17.3322 5.61936 17.4577 5.26334 17.6647C4.90318 17.874 4.47878 18.2345 4.32395 18.8299C4.17083 19.4187 4.34495 19.9945 4.63164 20.4962C5.75619 22.464 8.17956 24.4468 10.3881 25.8982C11.514 26.6381 12.6314 27.2706 13.5761 27.7224C14.0476 27.948 14.489 28.1347 14.8755 28.2672C15.2353 28.3906 15.6389 28.5 15.9997 28.5C16.7027 28.5 17.3277 28.1557 17.8353 27.7496C18.3569 27.3324 18.8678 26.7593 19.3623 26.1C20.3534 24.7786 21.3849 22.966 22.3943 20.9472C23.3453 19.0452 23.8007 17.2175 23.6062 15.5916C23.5461 15.0888 23.4245 14.6136 23.2429 14.1701L27.5155 8.06825C28.4658 6.71104 28.136 4.8404 26.7787 3.89006ZM22.0331 12.411C21.7337 12.1273 21.3938 11.8703 21.0142 11.6425C20.7977 11.5126 20.5828 11.3986 20.3698 11.2995L24.2389 5.77394C24.5556 5.32154 25.1792 5.21159 25.6316 5.52837C26.084 5.84515 26.1939 6.46869 25.8772 6.9211L22.0331 12.411ZM17.8318 21.5547C18.1382 21.0952 18.014 20.4743 17.5545 20.168C17.095 19.8616 16.4741 19.9858 16.1677 20.4453C15.7226 21.113 14.9042 22.0547 14.005 22.8939C13.1788 23.665 12.4048 24.2353 11.8725 24.4763C11.7444 24.3948 11.6156 24.3116 11.4865 24.2268C10.8639 23.8176 10.2486 23.38 9.66718 22.9278C10.667 22.4695 11.5678 21.8462 12.7069 20.7071C13.0974 20.3166 13.0974 19.6834 12.7069 19.2929C12.3164 18.9024 11.6832 18.9024 11.2927 19.2929C10.0108 20.5748 9.17629 21.0309 7.9628 21.456C7.2818 20.7924 6.72512 20.1286 6.36809 19.5038C6.33827 19.4516 6.31719 19.409 6.30233 19.3751C6.42159 19.3125 6.60396 19.2473 6.8624 19.1791C6.99802 19.1433 7.13922 19.1103 7.28924 19.0761L7.35466 19.0612C7.48103 19.0325 7.61608 19.0017 7.7424 18.9701C10.003 18.405 12.1592 16.7547 13.7068 15.2071C14.46 14.4539 15.3852 13.5807 16.4669 13.1019C17.4831 12.6521 18.6353 12.5476 19.9852 13.3575C20.975 13.9514 21.4949 14.78 21.6204 15.8292C21.7517 16.927 21.4572 18.3492 20.6054 20.0528C19.6149 22.034 18.6463 23.7214 17.7623 24.9C17.3192 25.4907 16.9238 25.9176 16.586 26.1879C16.2342 26.4693 16.0466 26.5 15.9997 26.5C15.9928 26.4994 15.9542 26.4962 15.8758 26.4786C15.7866 26.4585 15.6697 26.4252 15.5243 26.3754C15.233 26.2755 14.8658 26.1223 14.439 25.9182C14.2488 25.8272 14.0493 25.7273 13.8423 25.6193C14.3696 25.2453 14.8938 24.8001 15.3696 24.3561C16.3454 23.4453 17.277 22.387 17.8318 21.5547ZM6.20985 19.4331L6.20747 19.4353C6.20747 19.4353 6.20815 19.4346 6.20985 19.4331Z" fill="#0F0F0F"/>
</svg>

<svg xmlns="http://www.w3.org/2000/svg" width="32" height="32" viewBox="0 0 32 32"><path d="M26.779 3.89a3 3 0 0 0-4.178.737l-4.298 6.138c-.953-.055-1.844.153-2.646.508-1.46.646-2.618 1.773-3.364 2.52-1.453 1.452-3.296 2.802-5.036 3.237-.062.016-.167.04-.287.067-.201.047-.447.103-.618.148-.33.087-.733.213-1.089.42-.36.209-.784.57-.939 1.165-.153.589.021 1.165.308 1.666 1.124 1.968 3.548 3.95 5.756 5.402a28.02 28.02 0 0 0 3.188 1.824c.472.226.913.413 1.3.545.36.124.763.233 1.124.233.703 0 1.328-.344 1.835-.75.522-.418 1.033-.99 1.527-1.65.991-1.321 2.023-3.134 3.032-5.153.951-1.902 1.407-3.73 1.212-5.355a5.443 5.443 0 0 0-.363-1.422l4.273-6.102a3 3 0 0 0-.737-4.178Zm-4.746 8.521c-.3-.284-.64-.54-1.019-.768a6.957 6.957 0 0 0-.644-.344l3.869-5.525a1 1 0 1 1 1.638 1.147l-3.844 5.49Zm-4.201 9.144a1 1 0 1 0-1.664-1.11c-.445.668-1.264 1.61-2.163 2.449-.826.771-1.6 1.341-2.133 1.582a28.28 28.28 0 0 1-2.205-1.548c1-.458 1.9-1.082 3.04-2.22a1 1 0 0 0-1.414-1.415c-1.282 1.282-2.117 1.738-3.33 2.163-.681-.664-1.238-1.327-1.595-1.952a1.375 1.375 0 0 1-.066-.129 2.81 2.81 0 0 1 .56-.196c.136-.036.277-.069.427-.103l.066-.015.387-.09c2.261-.566 4.417-2.216 5.965-3.764.753-.753 1.678-1.626 2.76-2.105 1.016-.45 2.168-.554 3.518.255.99.594 1.51 1.423 1.635 2.472.132 1.098-.163 2.52-1.015 4.224-.99 1.981-1.959 3.668-2.843 4.847-.443.59-.838 1.018-1.176 1.288-.352.281-.54.312-.586.312-.007 0-.046-.004-.124-.021a3.477 3.477 0 0 1-.352-.104c-.291-.1-.658-.253-1.085-.457-.19-.09-.39-.19-.597-.299.528-.374 1.052-.819 1.528-1.263.975-.91 1.907-1.969 2.462-2.801ZM6.21 19.433l-.003.002.003-.002Z"/></svg>
